X:1
T:Mr. Blue (Transcribed)
T:Mr. Blue
C:Dewayne Blackwell
Z:All Rights Reserved
L:1/8
M:4/4
K:F
V:1 treble nm="Melody" snm="Choir"
%%MIDI program 53
V:1
 z4 z2 z C | (3FGA B2-"Bbmin6" BA GF |"Bbmin" _D4 z2 z ^C |"C7" C3 E D2 E2 |"F " F4 z2 z3/2 C/ | %5
w: Our|guar- di- an star * lost all his|glow the|day that I lost|you. He|
 (3FGA (3:2:2B A2- AG (3AGF |"Bbmin" ^C4z2(3zCC |"C7" C3 E D2 E2 |"F " F4 z2 z A | %9
w: lost all his glit- ter * the day you said|"No" and his|sil- ver turned to|blue. Like|
"Bbmin" BB- B4 z G |"F " AA- A4 z2 |"Bbmin" B3 A G2 F2 |"C7" G6 z C |"F " (3FGA c2- cc BA | %14
w: him I * am|doubt- ful *|that your love is|true. But|if you de- cide * to call on|
"Gmin" G6 z2 |"C7" C3 E D3 E |"F " Fc B2 A2 G2 | F6 A>c |"Amin" E4 (3:2:2E2 C (3:2:2E2 D- | %19
w: me,|ask for Mis- ter|Blue. * * * *|I'm Mis- ter|Blue (wah- a\- wah- ooh)|
"Bb " D2 d>d"C7" c3- c/F/ |"F " Ac- c6 |"Bb " z2 d2"C7" (3dcA- A2 | %22
w: * when you say * you|love me. *|Then prove it by *|
"F " (3ccc-"C " c2"Dmin" (3:2:2A2 G"Amin7" F2 |"Gmin7" z2 (3BBB"C7" GF- (3FDF | %24
w: go- in' out * on the sly|pro- vin' you're lo- ve * is- n't|
"F " A2 c2"Fmaj7" (3d2 c2 A2 |"Gmin" G2 (3:2:2G2 A"Bb " F3 D |"F " F2 c2"C7" (3d2 c2 G2 | %27
w: true. * * * *|* Call me Mis- ter|Blue. * * * *|
"F " F6 A>c |"Amin" E4 (3:2:2E2 C (3:2:2E2 D- |"Bb " D2 d>d"C7" c3- c/F/ |"F " Ac-"Fmaj7" c6 | %31
w: I'm Mis- ter|Blue (wah- a\- wah- ooh)|* when you say * you're|sor- ry. *|
"Bb " z2 d2"C7" (3dcA- A2 |"F " (3ccc-"C " cc"Dmin" (3:2:2A2 G"Amin7" F2 | %33
w: Then turn a\- round *|head- ed for * the lights of town,|
"Gmin7" z2 (3BBB"C7" GF- (3FDF |"F " A2 c2"Fmaj7" (3d2 c2 A2 |"Gmin" G2 (3:2:2G2 A"Bb " F3 D | %36
w: hur- tin' me thr- ough * a\- nd|through. * * * *|* Call me Mis- ter|
"F " F6 z2 |"C7" C2- (3CEG B3- B/A/ |"F " c6 z2 |"C7" C2- (3CEG B3- B/A/ |"F " c6 z3/2 A/ | %41
w: Blue.|I * stay at home * at|night,|right * by the phone * at|night but|
"Amin" c2 c2 A3 z/ A/ | (3:2:2c2 e- ee"G7" (3d2 =B2 d2 |"C7" c6 z2 | c2 B2 A2 G2 |"F " F6- (3FAc | %46
w: you won't call and|I \- * won't hu- rt my|pride.||I * won't tell|
"Amin" E4 (3:2:2E2 C (3:2:2E2 D- |"Bb " D2 (3:2:2d2 d c3- c/F/ |"F " Ac- c4 z2 | %49
w: you (wah- a\- wah- ooh)|* while you paint * the|to- wn *|
"Bb " z3/2 d/ (3:2:2d2 d-"C7" dA- (3A^GA |"F " cc-"C " c2"Dmin" (3AGF-"Amin7" F2 | %51
w: a bright red * to * turn it|up- side * do- w\- n. *|
"Gmin" z2 B2"C7" (3:2:2G F2- (3FDF |"F " A2 c2"Fmaj7" (3d2 c2 A2 | %53
w: I'm paint- ing * i\- t|too * * * *|
"Gmin" G2 GA"C7" (3:2:2G F2- F>D |"F " F2 c2"Fmaj7" (3d2 c2 A2 |"Gmin" G2 GA"C7" F2- F>D | %56
w: * but I'm paint- ing * it|blue. * * * *|* Call me Mis- * ter|
"F " F2 c2"Fmaj7" (3d2 c2 A2 |"Gmin" G2 GA"C7" F2- F>D |"F " F2 c2"Fmaj7" (3d2 c2 A2 | %59
w: Blue. * * * *|* Call me Mis- * ter|Blue. * * * *|
"Gmin" G2 GA"C7" F2- F>D |"F " F8 |] %61
w: * Call me Mis- * ter|Blue.|

